assets/icons/desktop/filled.svg

<?xml version="1.0" encoding="UTF-8" standalone="no"?>
<svg
   viewBox="0 0 24 24"
   height="24"
   id="svg7384"
   version="1.1"
   width="24"
   sodipodi:docname="filled.svg"
   inkscape:version="1.2 (1:1.2.1+202207142221+cd75a1ee6d)"
   xmlns:inkscape="http://www.inkscape.org/namespaces/inkscape"
   xmlns:sodipodi="http://sodipodi.sourceforge.net/DTD/sodipodi-0.dtd"
   xmlns="http://www.w3.org/2000/svg"
   xmlns:svg="http://www.w3.org/2000/svg"
   xmlns:rdf="http://www.w3.org/1999/02/22-rdf-syntax-ns#"
   xmlns:cc="http://creativecommons.org/ns#"
   xmlns:dc="http://purl.org/dc/elements/1.1/">
  <sodipodi:namedview
     id="namedview21"
     pagecolor="#ffffff"
     bordercolor="#666666"
     borderopacity="1.0"
     inkscape:pageshadow="2"
     inkscape:pageopacity="0.0"
     inkscape:pagecheckerboard="0"
     showgrid="true"
     inkscape:snap-page="true"
     inkscape:zoom="6.999999"
     inkscape:cx="17.285717"
     inkscape:cy="29.642861"
     inkscape:window-width="1920"
     inkscape:window-height="1016"
     inkscape:window-x="0"
     inkscape:window-y="0"
     inkscape:window-maximized="1"
     inkscape:current-layer="svg7384"
     inkscape:showpageshadow="2"
     inkscape:deskcolor="#d1d1d1">
    <inkscape:grid
       type="xygrid"
       id="grid837" />
    <inkscape:grid
       type="xygrid"
       id="grid839"
       dotted="true"
       spacingx="0.5"
       empspacing="10"
       spacingy="0.5" />
  </sodipodi:namedview>
  <metadata
     id="metadata20854">
    <rdf:RDF>
      <cc:Work
         rdf:about="">
        <dc:format>image/svg+xml</dc:format>
        <dc:type
           rdf:resource="http://purl.org/dc/dcmitype/StillImage" />
      </cc:Work>
    </rdf:RDF>
  </metadata>
  <defs
     id="defs7386">
    <linearGradient
       id="linearGradient5606"
       inkscape:swatch="solid">
      <stop
         id="stop5608"
         offset="0"
         style="stop-color:#000000;stop-opacity:1;" />
    </linearGradient>
    <linearGradient
       id="linearGradient4526"
       inkscape:swatch="solid">
      <stop
         id="stop4528"
         offset="0"
         style="stop-color:#ffffff;stop-opacity:1;" />
    </linearGradient>
    <linearGradient
       id="linearGradient3600-4"
       inkscape:swatch="gradient">
      <stop
         id="stop3602-7"
         offset="0"
         style="stop-color:#f4f4f4;stop-opacity:1" />
      <stop
         id="stop3604-6"
         offset="1"
         style="stop-color:#dbdbdb;stop-opacity:1" />
    </linearGradient>
  </defs>
  <g
     id="layer9"
     label="status"
     style="display:inline;stroke-width:0.8"
     transform="matrix(1.25,0,0,1.25,-739.25025,385.75)" />
  <g
     id="layer2"
     transform="matrix(1.25,0,0,1.25,-438,-73.000001)"
     style="stroke-width:0.8" />
  <g
     id="layer4"
     transform="matrix(1.25,0,0,1.25,-438,-73.000001)"
     style="stroke-width:0.8" />
  <g
     id="g1812"
     style="display:inline;stroke-width:0.8"
     transform="matrix(1.25,0,0,1.25,-438,-73.000001)" />
  <g
     id="g6217"
     transform="matrix(1.25,0,0,1.25,-438,-73.000001)"
     style="stroke-width:0.8" />
  <g
     id="layer3"
     style="display:inline;stroke-width:0.8"
     transform="matrix(1.25,0,0,1.25,-438,-73.000001)" />
  <g
     id="g1833"
     style="display:inline;stroke-width:0.8"
     transform="matrix(1.25,0,0,1.25,-438,-73.000001)" />
  <g
     id="layer1"
     transform="matrix(1.25,0,0,1.25,-438,-73.000001)"
     style="stroke-width:0.8" />
  <path
     id="path874"
     style="color:#000000;fill:#808080"
     d="M 5.4550781 4 C 4.4864982 4.00898 3.7372585 4.0732694 3.1171875 4.4453125 C 2.7038068 4.693341 2.3972495 5.1012205 2.2285156 5.6074219 C 2.0597819 6.1136233 2 6.7222238 2 7.5 L 2 16.5 C 2 17.277776 2.0597822 17.886377 2.2285156 18.392578 C 2.3972495 18.89878 2.7038068 19.306659 3.1171875 19.554688 C 3.8450466 19.991404 4.7702466 20.00316 6 20 L 6 4 C 5.8179365 3.9995788 5.6234481 3.9984407 5.4550781 4 z M 7 4 L 7 20 L 17.5 20 C 18.999997 20 20.056051 20.050739 20.882812 19.554688 C 21.296194 19.306659 21.602751 18.89878 21.771484 18.392578 C 21.940218 17.886377 22 17.277776 22 16.5 L 22 7.5 C 22 6.7222238 21.94022 6.1136233 21.771484 5.6074219 C 21.602751 5.1012205 21.296194 4.693341 20.882812 4.4453125 C 20.056052 3.9492557 18.999997 4 17.5 4 L 7 4 z " />
</svg>

<svg height="24" width="24" xmlns="http://www.w3.org/2000/svg"><path style="color:#000;fill:gray" d="M5.455 4c-.969.009-1.718.073-2.338.445-.413.248-.72.656-.888 1.162C2.059 6.114 2 6.722 2 7.5v9c0 .778.06 1.386.229 1.893.168.506.475.914.888 1.162.728.436 1.653.448 2.883.445V4c-.182 0-.377-.002-.545 0zM7 4v16h10.5c1.5 0 2.556.05 3.383-.445.413-.248.72-.656.888-1.162.17-.507.229-1.115.229-1.893v-9c0-.778-.06-1.386-.229-1.893-.168-.506-.475-.914-.888-1.162C20.056 3.95 19 4 17.5 4H7z"/></svg>
